src/dsmComponents/Icons/tick-20px.svg

<svg width="20" height="15" xmlns="http://www.w3.org/2000/svg" xmlns:xlink="http://www.w3.org/1999/xlink"><defs><path d="M17.875.375L6.25 12 2.125 7.875c-.5-.5-1.25-.5-1.75 0s-.5 1.25 0 1.75l5 5c.25.25.5.375.875.375s.625-.125.875-.375l12.5-12.5c.5-.5.5-1.25 0-1.75s-1.25-.5-1.75 0z" id="tick-20px_svg__a"/></defs><use fill="#737373" xlink:href="#tick-20px_svg__a" fill-rule="evenodd"/></svg>

<?xml version="1.0" encoding="UTF-8"?>
<svg width="20px" height="15px" viewBox="0 0 20 15" version="1.1" xmlns="http://www.w3.org/2000/svg" xmlns:xlink="http://www.w3.org/1999/xlink">
    <!-- Generator: Sketch 59.1 (86144) - https://sketch.com -->
    <title>tick-20px</title>
    <desc>Created with Sketch.</desc>
    <defs>
        <path d="M17.875,0.375 L6.25,12 L2.125,7.875 C1.625,7.375 0.875,7.375 0.375,7.875 C-0.125,8.375 -0.125,9.125 0.375,9.625 L5.375,14.625 C5.625,14.875 5.875,15 6.25,15 C6.625,15 6.875,14.875 7.125,14.625 L19.625,2.125 C20.125,1.625 20.125,0.875 19.625,0.375 C19.125,-0.125 18.375,-0.125 17.875,0.375 Z" id="path-1"></path>
    </defs>
    <g id="Final" stroke="none" stroke-width="1" fill="none" fill-rule="evenodd">
        <g id="All-Nucleo-Icons" transform="translate(-463.000000, -6551.000000)">
            <g id="Solo/Nucleo/20px/tick" transform="translate(461.000000, 6546.000000)">
                <g transform="translate(2.000000, 5.000000)" id="check">
                    <g>
                        <g id="Colour/Default-Colour">
                            <mask id="mask-2" fill="white">
                                <use xlink:href="#path-1"></use>
                            </mask>
                            <g id="Mask" fill-rule="nonzero"></g>
                            <g id="colour/neutral/chia" mask="url(#mask-2)" fill="#737373">
                                <g transform="translate(-22.000000, -26.000000)" id="Colour">
                                    <rect x="0" y="0" width="64" height="64"></rect>
                                </g>
                            </g>
                        </g>
                    </g>
                </g>
            </g>
        </g>
    </g>
</svg>
